X:1
T:If You Think I'M Sexy
M:C
L:1/8
Q:80
C:Rod Stewart
S:March
K:HP
{g}e2cBA/2{d}c3/2{d}A2|
{g}e2cBA/2{d}c3/2{d}A2|
{g}e2cBA/2{d}c3/2{d}A2|  !
{d}c4-c4:| |:
{g}A2{d}c2e2{gf}g2-|
g2{ef}e2-e4|  !
{g}e/2d/2{g}e/2d/2{gcd}c2-c4|
{g}d/2c/2{g}d/2c/2{AGAG}A2-A4:| |:
{g}e2cBA/2{d}c3/2{d}A2|  !
{g}e2cBA/2{d}c3/2{d}A2|
{g}e2cBA/2{d}c3/2{d}A2|
{d}c4-c4:|  !

